package-up.svg

<svg fill="currentColor" viewBox="0 0 24 24"><path d="M20.54 5.23c.29.34.46.77.46 1.27V19a2 2 0 0 1-2 2H5a2 2 0 0 1-2-2V6.5c0-.5.17-.93.46-1.27l1.38-1.68C5.12 3.21 5.53 3 6 3h12c.47 0 .88.21 1.15.55zM5.12 5h13.75l-.94-1h-12zM12 9.5 6.5 15H10v2h4v-2h3.5z"/></svg>

<svg  viewBox="0 0 24 24" fill="currentColor"><path  d="M20.54,5.23C20.83,5.57 21,6 21,6.5V19A2,2 0 0,1 19,21H5A2,2 0 0,1 3,19V6.5C3,6 3.17,5.57 3.46,5.23L4.84,3.55C5.12,3.21 5.53,3 6,3H18C18.47,3 18.88,3.21 19.15,3.55L20.54,5.23M5.12,5H18.87L17.93,4H5.93L5.12,5M12,9.5L6.5,15H10V17H14V15H17.5L12,9.5Z"/></svg>
